assets/Man pouting/Medium/Flat/man_pouting_flat_medium.svg

<svg width="32" height="32" viewBox="0 0 32 32" fill="none" xmlns="http://www.w3.org/2000/svg">
<path d="M22.5129 30C24.1658 30 25.5 28.7215 25.5 27.151V23.6174C25.5 18.8557 21.3579 15 16.25 15C11.1421 15 7 18.8557 7 23.6174V27.151C7 28.7215 8.33423 30 9.98708 30H22.5129Z" fill="#3BC6F6"/>
<path d="M10.5 25H7V23.6174C7 20.9575 8.29247 18.5803 10.3238 17H10.5V25Z" fill="#00A6ED"/>
<path d="M22 25H25.5V23.6174C25.5 20.9575 24.2075 18.5803 22.1762 17H22V25Z" fill="#00A6ED"/>
<path d="M12.99 23.25L21.85 24.79H25.5V27.24C25.5 28.12 25.05 28.95 24.3 29.47C23.79 29.82 23.18 30 22.57 30H22.56C22.13 30 21.71 29.88 21.32 29.68L9.41003 25C9.41003 25 9.98004 22.65 12.99 23.25Z" fill="#BB806E"/>
<path d="M19.51 23.3561L10.65 25H7V27.22C7 28.1 7.45 28.93 8.2 29.45C8.71 29.8 9.32 29.98 9.93 29.98H9.94C10.37 29.98 10.79 29.86 11.18 29.66L23.03 24.8961C23.02 24.8961 22.52 22.7561 19.51 23.3561Z" fill="#C68D7B"/>
<path d="M21.44 4.32082L21.02 4.11082C20.72 3.96082 20.45 3.77082 20.22 3.53082L19.41 2.72082C18.8 2.11082 17.89 1.91082 17.08 2.19082C16.55 2.37082 15.98 2.37082 15.45 2.19082C14.73 1.84082 13.87 1.98082 13.3 2.54082L12.3 3.53082C12.07 3.76082 11.8 3.96082 11.5 4.11082L11.09 4.32082C10.32 4.70082 9.89998 5.55082 10.06 6.39082L10.62 9.43082C10.68 9.73082 10.24 10.9608 10.24 10.9608H22.33C22.33 10.9608 21.88 9.73082 21.94 9.43082L22.5 6.39082C22.63 5.55082 22.21 4.70082 21.44 4.32082Z" fill="#593B39"/>
<path d="M16.25 19C15.0068 19 14 18.0144 14 16.7974V14.2026C14 12.9856 15.0068 12 16.25 12C17.4932 12 18.5 12.9856 18.5 14.2026V16.7974C18.5 18.0144 17.4932 19 16.25 19Z" fill="#B87A66"/>
<path d="M21.386 9.05013C21.3563 9.50849 21.33 9.96082 21.33 9.96082C21.63 9.94082 21.88 9.73082 21.94 9.43082L21.956 9.34404C22.2883 9.61917 22.5 10.0349 22.5 10.5C22.5 11.3284 21.8284 12 21 12C20.1716 12 19.5 11.3284 19.5 10.5C19.5 9.67157 20.1716 9 21 9C21.1334 9 21.2628 9.01743 21.386 9.05013Z" fill="#BB806E"/>
<path d="M10.5964 9.30263L10.62 9.43082C10.68 9.73082 10.94 9.95082 11.24 9.96082C11.24 9.96082 11.2079 9.50072 11.1789 9.03445C11.2823 9.01189 11.3898 9 11.5 9C12.3284 9 13 9.67157 13 10.5C13 11.3284 12.3284 12 11.5 12C10.6716 12 10 11.3284 10 10.5C10 10.0109 10.2341 9.57645 10.5964 9.30263Z" fill="#BB806E"/>
<path d="M11.1121 9.94353C11.1535 9.95347 11.1963 9.95937 11.24 9.96082C11.24 9.96082 11.18 9.10082 11.15 8.54082C11.13 8.25082 11.25 7.98082 11.46 7.79082L11.64 7.63083C11.89 7.41083 12.03 7.09083 12.03 6.76083V5.91083C12.03 5.67083 12.19 5.46083 12.43 5.40083C13.06 5.24083 14.41 4.97083 16.28 4.97083C18.15 4.97083 19.5 5.24083 20.13 5.40083C20.36 5.46083 20.53 5.67083 20.53 5.91083V6.76083C20.53 7.09083 20.67 7.41083 20.92 7.63083L21.11 7.80083C21.32 7.99083 21.44 8.27083 21.42 8.55083C21.38 9.10083 21.33 9.96082 21.33 9.96082C21.3492 9.95954 21.3683 9.95747 21.3871 9.95465L21.0919 14.0478C20.9191 15.7691 19.5372 17 17.8606 17H14.6394C12.9526 17 11.5809 15.7691 11.4081 14.0478L11.1121 9.94353Z" fill="#C68D7B"/>
<path d="M16.9574 14.5H15.5427C15.6457 14.2087 15.9235 14 16.25 14C16.5766 14 16.8544 14.2087 16.9574 14.5Z" fill="#BB806E"/>
<path d="M15.1047 13.2966C14.9924 13.3768 14.9663 13.533 15.0466 13.6453C15.1264 13.7571 15.2813 13.7834 15.3936 13.7047L15.3997 13.7007C15.4063 13.6966 15.4179 13.6895 15.4346 13.6804C15.4679 13.6622 15.521 13.6362 15.5931 13.6094C15.737 13.5561 15.9577 13.5 16.25 13.5C16.5424 13.5 16.763 13.5561 16.9069 13.6094C16.9791 13.6362 17.0322 13.6622 17.0655 13.6804C17.0821 13.6895 17.0938 13.6966 17.1004 13.7007L17.1064 13.7046C17.1064 13.7046 17.1064 13.7046 17.1064 13.7046C17.2186 13.7834 17.3736 13.7571 17.4535 13.6453C17.5337 13.533 17.5077 13.3768 17.3953 13.2966L17.3937 13.2954L17.3915 13.2939L17.3855 13.2898C17.3807 13.2866 17.3746 13.2826 17.3671 13.2778C17.352 13.2683 17.3312 13.2558 17.3049 13.2415C17.2522 13.2128 17.1772 13.1763 17.0806 13.1406C16.887 13.0689 16.6077 13 16.25 13C15.8924 13 15.613 13.0689 15.4194 13.1406C15.3228 13.1763 15.2478 13.2128 15.1952 13.2415C15.1688 13.2558 15.1481 13.2683 15.133 13.2778C15.1254 13.2826 15.1193 13.2866 15.1146 13.2898L15.1086 13.2939L15.1064 13.2954L15.1047 13.2966Z" fill="#990838"/>
<path d="M15.9 10.262L15.39 11.8484C15.28 12.1695 15.54 12.5 15.9 12.5H16.67C17.03 12.5 17.29 12.1695 17.18 11.8484L16.65 10.262C16.54 9.91265 16.02 9.91265 15.9 10.262Z" fill="#AB6A55"/>
<path d="M15.4794 10.251C15.5021 10.3872 15.388 10.5 15.2499 10.5H12.7499C12.6118 10.5 12.4977 10.3872 12.5205 10.251C12.6391 9.5411 13.2563 9 13.9999 9C14.7435 9 15.3608 9.5411 15.4794 10.251Z" fill="white"/>
<path d="M19.9617 10.251C19.9844 10.3872 19.8703 10.5 19.7323 10.5H17.2323C17.0942 10.5 16.9801 10.3872 17.0028 10.251C17.1214 9.5411 17.7386 9 18.4823 9C19.2259 9 19.8431 9.5411 19.9617 10.251Z" fill="white"/>
<path d="M15 10.125C15 10.2592 14.9698 10.3863 14.9158 10.5H13.3342C13.2802 10.3863 13.25 10.2592 13.25 10.125C13.25 9.64175 13.6418 9.25 14.125 9.25C14.6082 9.25 15 9.64175 15 10.125Z" fill="#7D4533"/>
<path d="M19.25 10.125C19.25 10.2592 19.2198 10.3863 19.1658 10.5H17.5842C17.5302 10.3863 17.5 10.2592 17.5 10.125C17.5 9.64175 17.8918 9.25 18.375 9.25C18.8582 9.25 19.25 9.64175 19.25 10.125Z" fill="#7D4533"/>
<path d="M14.624 10.12C14.624 10.2721 14.5561 10.4083 14.449 10.5H13.7991C13.6919 10.4083 13.624 10.2721 13.624 10.12C13.624 9.84385 13.8479 9.62 14.124 9.62C14.4002 9.62 14.624 9.84385 14.624 10.12Z" fill="black"/>
<path d="M18.874 10.12C18.874 10.2721 18.8061 10.4083 18.699 10.5H18.0491C17.9419 10.4083 17.874 10.2721 17.874 10.12C17.874 9.84385 18.0979 9.62 18.374 9.62C18.6502 9.62 18.874 9.84385 18.874 10.12Z" fill="black"/>
<path d="M13.8 9.9C13.9104 9.9 14 9.81046 14 9.7C14 9.58954 13.9104 9.5 13.8 9.5C13.6895 9.5 13.6 9.58954 13.6 9.7C13.6 9.81046 13.6895 9.9 13.8 9.9Z" fill="white"/>
<path d="M18.05 9.9C18.1604 9.9 18.25 9.81046 18.25 9.7C18.25 9.58954 18.1604 9.5 18.05 9.5C17.9395 9.5 17.85 9.58954 17.85 9.7C17.85 9.81046 17.9395 9.9 18.05 9.9Z" fill="white"/>
<path d="M13 7.5C12.7239 7.5 12.5 7.72386 12.5 8C12.5 8.27614 12.7239 8.5 13 8.5H15C15.2761 8.5 15.5 8.27614 15.5 8C15.5 7.72386 15.2761 7.5 15 7.5H13Z" fill="#593B39"/>
<path d="M17.5 7.5C17.2239 7.5 17 7.72386 17 8C17 8.27614 17.2239 8.5 17.5 8.5H19.5C19.7761 8.5 20 8.27614 20 8C20 7.72386 19.7761 7.5 19.5 7.5H17.5Z" fill="#593B39"/>
</svg>

<svg xmlns="http://www.w3.org/2000/svg" width="32" height="32" fill="none"><path fill="#3BC6F6" d="M22.513 30c1.653 0 2.987-1.279 2.987-2.849v-3.534c0-4.761-4.142-8.617-9.25-8.617S7 18.856 7 23.617v3.534C7 28.721 8.334 30 9.987 30h12.526Z"/><path fill="#00A6ED" d="M10.5 25H7v-1.383c0-2.66 1.292-5.037 3.324-6.617h.176v8ZM22 25h3.5v-1.383c0-2.66-1.293-5.037-3.324-6.617H22v8Z"/><path fill="#BB806E" d="m12.99 23.25 8.86 1.54h3.65v2.45c0 .88-.45 1.71-1.2 2.23-.51.35-1.12.53-1.73.53h-.01c-.43 0-.85-.12-1.24-.32L9.41 25s.57-2.35 3.58-1.75Z"/><path fill="#C68D7B" d="M19.51 23.356 10.65 25H7v2.22c0 .88.45 1.71 1.2 2.23.51.35 1.12.53 1.73.53h.01c.43 0 .85-.12 1.24-.32l11.85-4.764c-.01 0-.51-2.14-3.52-1.54Z"/><path fill="#593B39" d="m21.44 4.32-.42-.21c-.3-.15-.57-.34-.8-.58l-.81-.81c-.61-.61-1.52-.81-2.33-.53-.53.18-1.1.18-1.63 0-.72-.35-1.58-.21-2.15.35l-1 .99c-.23.23-.5.43-.8.58l-.41.21c-.77.38-1.19 1.23-1.03 2.07l.56 3.04c.06.3-.38 1.53-.38 1.53h12.09s-.45-1.23-.39-1.53l.56-3.04c.13-.84-.29-1.69-1.06-2.07Z"/><path fill="#B87A66" d="M16.25 19c-1.243 0-2.25-.986-2.25-2.203v-2.594C14 12.986 15.007 12 16.25 12s2.25.986 2.25 2.203v2.594c0 1.217-1.007 2.203-2.25 2.203Z"/><path fill="#BB806E" d="M21.386 9.05c-.03.458-.056.91-.056.91.3-.02.55-.23.61-.53l.016-.086a1.5 1.5 0 1 1-.57-.294ZM10.596 9.303l.024.128c.06.3.32.52.62.53 0 0-.032-.46-.061-.927a1.5 1.5 0 1 1-.583.268Z"/><path fill="#C68D7B" d="M11.112 9.944c.041.01.084.015.128.017 0 0-.06-.86-.09-1.42-.02-.29.1-.56.31-.75l.18-.16c.25-.22.39-.54.39-.87v-.85c0-.24.16-.45.4-.51.63-.16 1.98-.43 3.85-.43s3.22.27 3.85.43c.23.06.4.27.4.51v.85c0 .33.14.65.39.87l.19.17c.21.19.33.47.31.75-.04.55-.09 1.41-.09 1.41a.699.699 0 0 0 .057-.006l-.295 4.093C20.919 15.769 19.537 17 17.86 17h-3.222c-1.686 0-3.058-1.23-3.23-2.952l-.297-4.104Z"/><path fill="#BB806E" d="M16.957 14.5h-1.414a.75.75 0 0 1 1.414 0Z"/><path fill="#990838" d="M15.105 13.297a.25.25 0 0 0 .289.408l.006-.004a1.22 1.22 0 0 1 .193-.091 1.89 1.89 0 0 1 .657-.11c.292 0 .513.056.657.11a1.217 1.217 0 0 1 .193.09l.006.005a.25.25 0 0 0 .29-.408l-.002-.002-.002-.001-.006-.004a1.18 1.18 0 0 0-.081-.048 1.707 1.707 0 0 0-.224-.101A2.388 2.388 0 0 0 16.25 13c-.358 0-.637.069-.83.14a1.699 1.699 0 0 0-.305.15l-.006.004-.003.001-.001.002Z"/><path fill="#AB6A55" d="m15.9 10.262-.51 1.586c-.11.321.15.652.51.652h.77c.36 0 .62-.33.51-.652l-.53-1.586c-.11-.35-.63-.35-.75 0Z"/><path fill="#fff" d="M15.48 10.251c.022.136-.092.249-.23.249h-2.5c-.138 0-.252-.113-.23-.249a1.5 1.5 0 0 1 2.96 0ZM19.962 10.251c.022.136-.092.249-.23.249h-2.5c-.138 0-.252-.113-.23-.249a1.5 1.5 0 0 1 2.96 0Z"/><path fill="#7D4533" d="M15 10.125c0 .134-.03.261-.084.375h-1.582A.875.875 0 1 1 15 10.125ZM19.25 10.125c0 .134-.03.261-.084.375h-1.582a.875.875 0 1 1 1.666-.375Z"/><path fill="#000" d="M14.624 10.12a.499.499 0 0 1-.175.38h-.65a.499.499 0 0 1 .325-.88.5.5 0 0 1 .5.5ZM18.874 10.12a.499.499 0 0 1-.175.38h-.65a.499.499 0 0 1 .325-.88.5.5 0 0 1 .5.5Z"/><path fill="#fff" d="M13.8 9.9a.2.2 0 1 0 0-.4.2.2 0 0 0 0 .4ZM18.05 9.9a.2.2 0 1 0 0-.4.2.2 0 0 0 0 .4Z"/><path fill="#593B39" d="M13 7.5a.5.5 0 0 0 0 1h2a.5.5 0 0 0 0-1h-2ZM17.5 7.5a.5.5 0 0 0 0 1h2a.5.5 0 0 0 0-1h-2Z"/></svg>
